build/img/icon_watch.svg

<svg width="30" height="37" viewBox="0 0 30 37" fill="none" xmlns="http://www.w3.org/2000/svg">
<path d="M3.84612 11.9991L2.34001 10.4847C1.52177 9.66241 1.52177 8.32386 2.34001 7.50101C3.15825 6.67843 4.48973 6.67843 5.30797 7.50101L6.91603 9.1176C8.5935 7.94307 10.5057 7.13011 12.5092 6.73998V4.64204H11.11C10.7235 4.64204 10.4104 4.32719 10.4104 3.9387V2.11002C10.4104 0.946487 11.3518 0 12.5092 0H18.1063C19.2637 0 20.2052 0.946487 20.2052 2.11002V3.9387C20.2052 4.32719 19.892 4.64204 19.5055 4.64204H18.1063V6.73998C20.1095 7.12984 22.022 7.94307 23.6995 9.1176L25.3076 7.50101C26.1255 6.67843 27.457 6.67843 28.2755 7.50101C29.0938 8.32359 29.0938 9.66214 28.2755 10.4847L26.7694 11.9991C28.8571 14.6133 30 17.8695 30 21.2409C30 29.3851 23.409 36.011 15.3078 36.011C7.20654 36.011 0.615528 29.3851 0.615528 21.2409C0.615528 17.8695 1.75844 14.6133 3.84612 11.9991ZM4.31865 8.49558C4.04563 8.22139 3.60207 8.22166 3.32933 8.49558C3.05685 8.76977 3.05685 9.21595 3.32933 9.49015L4.77505 10.9433C5.10081 10.607 5.44243 10.2863 5.79771 9.98276L4.31865 8.49558ZM18.8059 2.11002C18.8059 1.72208 18.4922 1.40668 18.1063 1.40668H12.5092C12.1234 1.40668 11.8096 1.72208 11.8096 2.11002V3.23536H18.8059V2.11002ZM13.9085 4.64204V6.53722C14.8358 6.44985 15.7795 6.44985 16.707 6.53722V4.64204H13.9085ZM27.2862 8.49558C27.0135 8.22166 26.5696 8.22139 26.2969 8.49558L24.8178 9.98276C25.1731 10.2863 25.5147 10.607 25.8405 10.9433L27.2862 9.49015C27.5587 9.21595 27.5587 8.76977 27.2862 8.49558ZM15.3078 34.6043C22.6375 34.6043 28.6007 28.6095 28.6007 21.2409C28.6007 17.9904 27.4269 14.8586 25.2958 12.4219C24.7088 11.7507 24.0537 11.1375 23.3489 10.5985C21.5826 9.24727 19.4919 8.35793 17.3028 8.02632C16.6477 7.92769 15.9765 7.87741 15.3078 7.87741C14.639 7.87741 13.9678 7.92769 13.313 8.02632C11.1236 8.35793 9.03296 9.24727 7.26639 10.5985C6.56184 11.1375 5.90676 11.7507 5.31972 12.4219C3.18858 14.8586 2.01479 17.9904 2.01479 21.2409C2.01479 28.6095 7.97804 34.6043 15.3078 34.6043Z" fill="#00B2FF"/>
<path d="M15.3074 23.3508C14.15 23.3508 13.2085 22.4043 13.2085 21.2408C13.2085 20.324 13.7933 19.542 14.6077 19.2516V14.2074C14.6077 13.8189 14.9209 13.504 15.3074 13.504C15.6938 13.504 16.007 13.8189 16.007 14.2074V19.2516C16.8214 19.542 17.4062 20.324 17.4062 21.2408C17.4062 22.4043 16.4648 23.3508 15.3074 23.3508ZM15.3074 20.5374C14.9215 20.5374 14.6077 20.8528 14.6077 21.2408C14.6077 21.6287 14.9215 21.9441 15.3074 21.9441C15.6932 21.9441 16.007 21.6287 16.007 21.2408C16.007 20.8528 15.6932 20.5374 15.3074 20.5374Z" fill="#00B2FF"/>
<path d="M7.85482 13.8205C7.86575 13.8076 7.87668 13.7947 7.88898 13.7826C7.9021 13.7692 7.91603 13.7571 7.92997 13.745C9.16307 12.5185 10.6864 11.6111 12.3396 11.1204C12.7104 11.0105 13.0993 11.2231 13.2086 11.5957C13.3179 11.9682 13.1064 12.3595 12.7358 12.4694C11.5109 12.8331 10.3683 13.4617 9.39428 14.3011L9.86625 14.7755C10.1393 15.0503 10.1393 15.4956 9.86625 15.7704C9.72961 15.9078 9.5506 15.9764 9.37132 15.9764C9.19231 15.9764 9.01331 15.9078 8.87666 15.7704L8.40359 15.2948C7.1377 16.7746 6.38587 18.5961 6.23938 20.5374H6.91223C7.29866 20.5374 7.61186 20.8526 7.61186 21.2408C7.61186 21.6293 7.29866 21.9441 6.91223 21.9441H6.23938C6.38587 23.8857 7.1377 25.707 8.40359 27.1868L8.87666 26.7112C9.14995 26.4367 9.59296 26.4367 9.86625 26.7112C10.1395 26.9859 10.1395 27.4313 9.86625 27.706L9.39318 28.1816C10.8651 29.4542 12.6771 30.21 14.6082 30.3576V29.6809C14.6082 29.2924 14.9214 28.9775 15.3078 28.9775C15.6942 28.9775 16.0074 29.2924 16.0074 29.6809V30.3573C17.9385 30.21 19.7504 29.4542 21.2224 28.1816L20.7493 27.706C20.476 27.4313 20.476 26.9859 20.7493 26.7112C21.0226 26.4367 21.4656 26.4367 21.7389 26.7112L22.212 27.1868C23.4779 25.707 24.2297 23.8854 24.3762 21.9441H23.7034C23.3169 21.9441 23.0037 21.6293 23.0037 21.2408C23.0037 20.8523 23.3169 20.5374 23.7034 20.5374H24.3762C24.2297 18.5961 23.4779 16.7746 22.212 15.2948L21.7389 15.7704C21.6023 15.9078 21.4233 15.9764 21.2443 15.9764C21.065 15.9764 20.886 15.9078 20.7493 15.7704C20.4763 15.4956 20.4763 15.0503 20.7493 14.7755L21.2213 14.3011C20.2473 13.4615 19.1047 12.8331 17.8798 12.4694C17.5092 12.3595 17.2976 11.9682 17.407 11.5957C17.5163 11.2231 17.9049 11.0108 18.276 11.1204C19.9289 11.6108 21.4517 12.518 22.6845 13.7439C22.699 13.7563 22.7132 13.7689 22.7266 13.7824C22.7386 13.7944 22.7493 13.8071 22.7602 13.8197C24.7222 15.8105 25.8022 18.4436 25.8022 21.2408C25.8022 24.0377 24.7222 26.6705 22.7608 28.661C22.7498 28.6739 22.7389 28.6868 22.7266 28.6989C22.7146 28.7113 22.702 28.722 22.6894 28.733C20.7092 30.7051 18.0902 31.7909 15.3078 31.7909C12.5257 31.7909 9.9067 30.7054 7.92669 28.7335C7.91385 28.7223 7.901 28.7113 7.88898 28.6989C7.87695 28.6871 7.86629 28.6742 7.85536 28.6618C5.89339 26.6711 4.81334 24.0379 4.81334 21.2408C4.81334 18.4439 5.89339 15.811 7.85482 13.8205Z" fill="#00B2FF"/>
<path d="M15.3077 12.0974C14.9215 12.0974 14.6081 11.7822 14.6081 11.394C14.6081 11.0058 14.9215 10.6907 15.3077 10.6907C15.6939 10.6907 16.0073 11.0058 16.0073 11.394C16.0073 11.7822 15.6939 12.0974 15.3077 12.0974Z" fill="#00B2FF"/>
</svg>

<svg width="30" height="37" fill="none" xmlns="http://www.w3.org/2000/svg"><path d="M3.846 12L2.34 10.484a2.12 2.12 0 010-2.984 2.093 2.093 0 012.968 0l1.608 1.617a14.654 14.654 0 015.593-2.378V4.642H11.11a.701.701 0 01-.7-.703V2.11c0-1.164.942-2.11 2.1-2.11h5.596c1.158 0 2.1.946 2.1 2.11v1.829a.701.701 0 01-.7.703h-1.4V6.74A14.652 14.652 0 0123.7 9.118L25.309 7.5a2.093 2.093 0 012.968 0 2.12 2.12 0 010 2.984l-1.507 1.514A14.804 14.804 0 0130 21.241c0 8.144-6.591 14.77-14.692 14.77-8.101 0-14.692-6.626-14.692-14.77a14.8 14.8 0 013.23-9.242zm.473-3.504a.698.698 0 00-.99 0 .707.707 0 000 .994l1.446 1.453a14.89 14.89 0 011.023-.96l-1.48-1.487zM18.806 2.11a.702.702 0 00-.7-.703H12.51c-.386 0-.7.315-.7.703v1.125h6.997V2.11zm-4.898 2.532v1.895a14.972 14.972 0 012.799 0V4.642h-2.799zm13.378 3.854a.698.698 0 00-.99 0l-1.478 1.487c.355.303.697.624 1.022.96l1.446-1.453a.707.707 0 000-.994zM15.308 34.604c7.33 0 13.293-5.994 13.293-13.363a13.389 13.389 0 00-5.252-10.643 13.245 13.245 0 00-6.046-2.572 13.444 13.444 0 00-3.99 0 13.246 13.246 0 00-6.047 2.572A13.388 13.388 0 002.014 21.24c0 7.37 5.964 13.364 13.294 13.364z" fill="#00B2FF"/><path d="M15.307 23.35a2.113 2.113 0 01-.7-4.1v-5.043c0-.388.314-.703.7-.703.387 0 .7.315.7.703v5.045a2.113 2.113 0 01-.7 4.099zm0-2.813a.703.703 0 000 1.407.702.702 0 000-1.407z" fill="#00B2FF"/><path d="M7.855 13.82l.034-.037a10.52 10.52 0 014.45-2.662.704.704 0 01.396 1.349 9.102 9.102 0 00-3.34 1.831l.471.474a.707.707 0 010 .995.695.695 0 01-.99 0l-.472-.475a9.083 9.083 0 00-2.165 5.242h.673c.387 0 .7.316.7.704a.701.701 0 01-.7.703H6.24a9.083 9.083 0 002.165 5.243l.473-.476a.698.698 0 01.99 0 .706.706 0 010 .995l-.474.476a8.988 8.988 0 005.215 2.176v-.677c0-.389.313-.704.7-.704.386 0 .7.315.7.704v.676a8.986 8.986 0 005.214-2.175l-.473-.476a.706.706 0 010-.995.698.698 0 01.99 0l.473.476a9.083 9.083 0 002.164-5.243h-.673a.701.701 0 01-.7-.703c0-.389.314-.704.7-.704h.673a9.083 9.083 0 00-2.164-5.242l-.473.475a.695.695 0 01-.99 0 .707.707 0 010-.995l.472-.474a9.099 9.099 0 00-3.341-1.832.704.704 0 01.396-1.349 10.517 10.517 0 014.409 2.624.698.698 0 01.042.038c.012.012.022.025.033.038a10.506 10.506 0 013.042 7.42c0 2.798-1.08 5.43-3.041 7.421l-.034.038-.038.034a10.394 10.394 0 01-7.381 3.058 10.394 10.394 0 01-7.381-3.058.402.402 0 01-.038-.034l-.034-.037a10.506 10.506 0 01-3.042-7.421c0-2.797 1.08-5.43 3.042-7.42z" fill="#00B2FF"/><path d="M15.308 12.097a.702.702 0 01-.7-.703c0-.388.313-.703.7-.703.386 0 .7.315.7.703a.702.702 0 01-.7.703z" fill="#00B2FF"/></svg>
